X:5
T:Harris Dance
S:Chris Norman
M:C
L:1/8
Q:1/4=160
K:G
c2 ge g2 az |g2 e g2 e ed |c2 ge g2 az |edde AAAG :|!
e2 dc AAAG |e2 dc AAAG | e2 dc AGAc |dedc AAAG :|
